resources/themes/cura/icons/category_experimental.svg

<?xml version="1.0" encoding="UTF-8" standalone="no"?>
<!-- Generator: Adobe Illustrator 16.0.0, SVG Export Plug-In . SVG Version: 6.00 Build 0)  -->

<svg
   xmlns:i="&amp;#38;#38;#38;#38;ns_ai;"
   xmlns:dc="http://purl.org/dc/elements/1.1/"
   xmlns:cc="http://creativecommons.org/ns#"
   xmlns:rdf="http://www.w3.org/1999/02/22-rdf-syntax-ns#"
   xmlns:svg="http://www.w3.org/2000/svg"
   xmlns="http://www.w3.org/2000/svg"
   xmlns:xlink="http://www.w3.org/1999/xlink"
   xmlns:sodipodi="http://sodipodi.sourceforge.net/DTD/sodipodi-0.dtd"
   xmlns:inkscape="http://www.inkscape.org/namespaces/inkscape"
   version="1.1"
   x="0px"
   y="0px"
   width="30px"
   height="30px"
   viewBox="0 0 30 30"
   enable-background="new 0 0 30 30"
   xml:space="preserve"
   id="svg3445"
   inkscape:version="0.91 r13725"
   sodipodi:docname="category_experimental.svg"><metadata
     id="metadata3464"><rdf:RDF><cc:Work
         rdf:about=""><dc:format>image/svg+xml</dc:format><dc:type
           rdf:resource="http://purl.org/dc/dcmitype/StillImage" /><dc:title></dc:title></cc:Work></rdf:RDF></metadata><defs
     id="defs3462" /><sodipodi:namedview
     pagecolor="#000000"
     bordercolor="#666666"
     borderopacity="1"
     objecttolerance="10"
     gridtolerance="10"
     guidetolerance="10"
     inkscape:pageopacity="0"
     inkscape:pageshadow="2"
     inkscape:window-width="1280"
     inkscape:window-height="748"
     id="namedview3460"
     showgrid="false"
     inkscape:zoom="16.233993"
     inkscape:cx="15"
     inkscape:cy="15"
     inkscape:window-x="-8"
     inkscape:window-y="-8"
     inkscape:window-maximized="1"
     inkscape:current-layer="g3449" /><switch
     id="switch3447"
     style="fill:#000000"><foreignObject
       requiredExtensions="http://ns.adobe.com/AdobeIllustrator/10.0/"
       x="0"
       y="0"
       width="1"
       height="1"><i:pgfRef
         xlink:href="#adobe_illustrator_pgf" /></foreignObject><g
       i:extraneous="self"
       id="g3449"
       style="fill:#000000"><g
         id="frame_30x30"
         display="none"
         style="fill:#000000"><rect
           display="inline"
           width="30"
           height="30"
           id="rect3452"
           style="fill:#000000" /></g><g
         id="frame_24x24"
         display="none"
         style="fill:#000000"><rect
           x="3"
           y="3"
           display="inline"
           fill="#C6C7C8"
           width="24"
           height="24"
           id="rect3455"
           style="fill:#000000" /></g><path
         style="color:#000000;clip-rule:nonzero;display:inline;overflow:visible;visibility:visible;opacity:1;isolation:auto;mix-blend-mode:normal;color-interpolation:sRGB;color-interpolation-filters:linearRGB;solid-color:#000000;solid-opacity:1;fill:#ffffff;fill-opacity:1;fill-rule:nonzero;stroke-width:1;stroke-linecap:butt;stroke-linejoin:miter;stroke-miterlimit:4;stroke-dasharray:none;stroke-dashoffset:0;stroke-opacity:1;color-rendering:auto;image-rendering:auto;shape-rendering:auto;text-rendering:auto;enable-background:accumulate"
         d="M 9 3 L 10 11 L 3 27 L 27 27 L 20 11 L 21 3 L 9 3 z M 10.443359 4 L 19.556641 4 L 19.0625 10.648438 L 18.931641 11 L 19.064453 11.351562 L 20.236328 14.478516 L 9.765625 14.478516 L 10.9375 11.351562 L 11.068359 11 L 10.9375 10.648438 L 10.443359 4 z M 13.855469 8.8613281 A 1.5913661 1.5692637 0 0 0 12.263672 10.429688 A 1.5913661 1.5692637 0 0 0 13.855469 12 A 1.5913661 1.5692637 0 0 0 15.447266 10.429688 A 1.5913661 1.5692637 0 0 0 13.855469 8.8613281 z M 13.658203 16.289062 C 14.870119 16.28903 15.852364 17.227542 15.851562 18.384766 C 15.851234 19.541227 14.869319 20.478548 13.658203 20.478516 C 12.44785 20.477519 11.467125 19.540499 11.466797 18.384766 C 11.465996 17.22827 12.44705 16.29006 13.658203 16.289062 z M 9.7949219 21.191406 A 1.6015776 1.6015776 0 0 1 11.396484 22.792969 A 1.6015776 1.6015776 0 0 1 9.7949219 24.394531 A 1.6015776 1.6015776 0 0 1 8.1933594 22.792969 A 1.6015776 1.6015776 0 0 1 9.7949219 21.191406 z "
         id="path3458" /></g></switch><i:pgf
     id="adobe_illustrator_pgf" /></svg>

<svg xmlns="http://www.w3.org/2000/svg" viewBox="0 0 30 30">
    <switch>
        <g>
            <path style="isolation:auto;mix-blend-mode:normal" d="M9 3l1 8-7 16h24l-7-16 1-8H9zm1.443 1h9.114l-.494 6.648-.131.352.132.352 1.172 3.127H9.766l1.171-3.127.131-.352-.13-.352L10.443 4zm3.412 4.861a1.591 1.57 0 0 0-1.591 1.569A1.591 1.57 0 0 0 13.855 12a1.591 1.57 0 0 0 1.592-1.57 1.591 1.57 0 0 0-1.592-1.569zm-.197 7.428c1.212 0 2.194.939 2.194 2.096 0 1.156-.983 2.094-2.194 2.094-1.21-.001-2.19-.939-2.191-2.094-.001-1.157.98-2.095 2.191-2.096zm-3.863 4.902a1.602 1.602 0 0 1 1.601 1.602 1.602 1.602 0 0 1-1.601 1.602 1.602 1.602 0 0 1-1.602-1.602 1.602 1.602 0 0 1 1.602-1.602z" overflow="visible"/>
        </g>
    </switch>
</svg>
